X:1
T:Ayers Rock, 10.10.10.10
T:Ayers Rock, 10.10.10.10
T:Flavius Josephus Lutz, 1906
T:Public Domain Courtesy of the Cyber Hymnal™
C:Flavius Josephus Lutz, 1906
Z:Public Domain
Z:Courtesy of the Cyber Hymnal™
%%score 1 2
L:1/8
Q:1/4=105
M:3/4
K:Bb
V:1 treble 
V:2 bass 
V:1
 [B,D]2 [CE]2 [^C=E]2 | [^CG]2 [DF]4 | [DF]2 [DB]2 [FB]2 | [Ec]2 [GB]4 | [GB]2 [^FB]2 [GB]2 | %5
 [Fd]2 [FB]2 [DF]2 | [Fe]2 [Ge]2 [Fd]2 | [Fc]6 | [B,D]2 [CE]2 [^C=E]2 | [^CG]2 [DF]4 | %10
 [DF]2 [DB]2 [FB]2 | [Ec]2 [GB]4 | [GB]2 [^FB]2 [GB]2 | [FB]2 [DF]2 [DF]2 | [EG]2 [EB]2 [Ec]2 | %15
 [DB]6 |] %16
V:2
 [B,,B,]2 [B,,A,]2 [B,,G,]2 | [B,,=E,]2 [B,,F,]4 | [B,,F,]2 [B,,F,]2 [D,_A,]2 | [E,G,]2 [E,B,]4 | %4
 [E,B,]2 [E,C]2 [E,B,]2 | [F,B,]2 [F,D]2 [F,B,]2 | [F,A,]2 [F,B,]2 [F,B,]2 | [F,A,]6 | %8
 [B,,B,]2 [B,,A,]2 [B,,G,]2 | [B,,=E,]2 [B,,F,]4 | [B,,F,]2 [B,,F,]2 [D,_A,]2 | [E,G,]2 [E,B,]4 | %12
 [E,B,]2 [E,C]2 [=E,^C]2 | [F,D]2 [F,B,]2 [F,B,]2 | [E,B,]2 [G,B,]2 [F,A,]2 | [B,,B,]6 |] %16

